svg/life-bouy.svg

<svg xmlns="http://www.w3.org/2000/svg" viewBox="0 0 64 64" enable-background="new 0 0 64 64"><style type="text/css">.st0{fill:#343434;}</style><title>life-bouy</title><desc>Created with Sketch.</desc><path class="st0" d="M32 0c-17.7 0-32 14.3-32 32s14.3 32 32 32 32-14.3 32-32-14.3-32-32-32zm12.6 7c5.4 2.7 9.7 7 12.4 12.4l-8.4 5.6c-1.8-4.3-5.3-7.7-9.5-9.5l5.5-8.5zm-25.2 0l5.6 8.4c-4.3 1.8-7.7 5.2-9.5 9.5l-8.5-5.6c2.7-5.3 7.1-9.6 12.4-12.3zm-.1 50c-5.3-2.7-9.6-7-12.3-12.3l8.4-5.6c1.8 4.3 5.2 7.7 9.5 9.5l-5.6 8.4zm-1.3-25c0-7.7 6.3-14 14-14s14 6.3 14 14-6.3 14-14 14-14-6.3-14-14zm26.7 25l-5.7-8.4c4.3-1.8 7.7-5.3 9.5-9.5l8.4 5.6c-2.6 5.2-6.9 9.6-12.2 12.3z"/></svg>

<svg xmlns="http://www.w3.org/2000/svg" viewBox="0 0 64 64"><path d="M32 0C14.3 0 0 14.3 0 32s14.3 32 32 32 32-14.3 32-32S49.7 0 32 0zm12.6 7C50 9.7 54.3 14 57 19.4L48.6 25c-1.8-4.3-5.3-7.7-9.5-9.5L44.6 7zM19.4 7l5.6 8.4c-4.3 1.8-7.7 5.2-9.5 9.5L7 19.3C9.7 14 14.1 9.7 19.4 7zm-.1 50C14 54.3 9.7 50 7 44.7l8.4-5.6c1.8 4.3 5.2 7.7 9.5 9.5L19.3 57zM18 32c0-7.7 6.3-14 14-14s14 6.3 14 14-6.3 14-14 14-14-6.3-14-14zm26.7 25L39 48.6c4.3-1.8 7.7-5.3 9.5-9.5l8.4 5.6C54.3 49.9 50 54.3 44.7 57z" fill="#343434"/></svg>
